X: 29248
T: New Langolee
R: jig
M: 6/8
K: Gmajor
(G/F/)|DEG GAB|ced cBA|BGE D>EG|B>cA G2 (G/F/)|
DEG G>AB|ced cBA|BGE D>EG|B>cA G2 G|
GBd d>Bd|c>de dBG|GBd e>fg|G>AG GED|
c>cc cBB|G>AG GED|G>ED DEG|B>cA G2 z:|

